app/img/search-icon.svg

<svg width="21" height="21" viewBox="0 0 21 21" fill="none" xmlns="http://www.w3.org/2000/svg">
<path d="M20.7619 19.1139L16.5808 14.9328C17.8511 13.4064 18.6161 11.4448 18.6161 9.30954C18.6161 4.45122 14.6649 0.5 9.80657 0.5C4.95 0.5 0.998779 4.45122 0.998779 9.30779C0.998779 14.1644 4.95 18.1156 9.80657 18.1156C11.9436 18.1156 13.9034 17.3506 15.4299 16.0803L19.6109 20.2614C19.7706 20.421 19.9776 20.5 20.1864 20.5C20.3935 20.5 20.6023 20.421 20.7619 20.2614C21.0795 19.9456 21.0795 19.4315 20.7619 19.1139ZM2.62524 9.30779C2.62524 5.34779 5.84657 2.12646 9.80657 2.12646C13.7666 2.12646 16.9897 5.34779 16.9897 9.30779C16.9897 13.2678 13.7666 16.4909 9.80657 16.4909C5.84657 16.4909 2.62524 13.2678 2.62524 9.30779Z" fill="#2C2C2C"/>
</svg>

<svg width="21" height="21" fill="none" xmlns="http://www.w3.org/2000/svg"><path d="M20.762 19.114l-4.181-4.181a8.765 8.765 0 002.035-5.623c0-4.859-3.951-8.81-8.81-8.81C4.95.5 1 4.451 1 9.308c0 4.856 3.951 8.808 8.808 8.808a8.762 8.762 0 005.623-2.036l4.18 4.181a.81.81 0 001.152 0 .81.81 0 000-1.147zM2.625 9.308a7.19 7.19 0 017.182-7.182c3.96 0 7.183 3.222 7.183 7.182 0 3.96-3.223 7.183-7.183 7.183s-7.182-3.223-7.182-7.183z" fill="#2C2C2C"/></svg>
